packages/blockchain-info-components/src/Images/img/identification.svg

<svg fill="none" height="24" viewBox="0 0 24 24" width="24" xmlns="http://www.w3.org/2000/svg"><path d="m19.9663 4.19921-8.7705-3.19219c-.6646-.241081-1.39777-.208671-2.03854.09012-.64076.2988-1.13684.83957-1.37937 1.50368l-5.0163 13.78218c-.24108.6646-.20867 1.3977.09012 2.0385.2988.6408.83957 1.1368 1.50368 1.3794l8.77051 3.1922c.6646.2411 1.3977.2086 2.0385-.0902.6407-.2987 1.1368-.8395 1.3794-1.5036l5.0162-13.78219c.2411-.66463.2087-1.39776-.0901-2.03852-.2988-.64077-.8395-1.13684-1.5036-1.37938zm-5.1781 10.02129c.1799.4277.1682.9108-.0341 1.3595-.4021.8939-1.3746 1.3864-2.1675 1.0978-.7928-.2886-1.2224-1.2914-.9551-2.2343.1359-.4782.4365-.857.8467-1.0665.4101-.2094.8798-.2318 1.334-.0665.217.0755.4159.1954.5839.3521.1681.1567.3016.3467.3921.5579zm-2.6251-10.02359c.0605-.16615.1845-.30147.3447-.37619.1603-.07472.3436-.08273.5098-.02226l3.7588 1.36808c.1661.06048.3014.18448.3762.34472.0747.16025.0827.34361.0222.50976s-.1845.30147-.3447.37619c-.1602.07473-.3436.08273-.5098.02226l-3.7587-1.36808c-.1662-.06048-.3015-.18447-.3762-.34472-.0747-.16024-.0828-.34361-.0223-.50976zm2.2152 16.93879c-.0641.0358-.1353.0571-.2086.0623-.0732.0053-.1467-.0055-.2153-.0317l-5.30068-1.9293c-.06941-.024-.1327-.063-.18541-.1141-.05272-.0511-.09357-.1132-.11969-.1819-.02759-.0764-.03764-.158-.02941-.2388s.03454-.1588.07697-.2281c.37749-.6412.98432-1.0743 1.75512-1.2527.6846-.1583 1.4584-.1011 2.1788.1612.7204.2622 1.35.7157 1.7726 1.277.4759.6321.6623 1.354.5393 2.0878-.012.0804-.042.157-.0876.2242-.0457.0672-.1058.1233-.1761.1641z" fill="#5322e5"/></svg>

<svg width="24" height="24" viewBox="0 0 24 24" fill="none" xmlns="http://www.w3.org/2000/svg">
<path d="M19.9663 4.19921L11.1958 1.00702C10.5312 0.765939 9.79803 0.798349 9.15726 1.09714C8.5165 1.39594 8.02042 1.93671 7.77789 2.60082L2.76159 16.383C2.52051 17.0476 2.55292 17.7807 2.85171 18.4215C3.15051 19.0623 3.69128 19.5583 4.35539 19.8009L13.1259 22.9931C13.7905 23.2342 14.5236 23.2017 15.1644 22.9029C15.8051 22.6042 16.3012 22.0634 16.5438 21.3993L21.56 7.61711C21.8011 6.95248 21.7687 6.21935 21.4699 5.57859C21.1711 4.93782 20.6304 4.44175 19.9663 4.19921ZM14.7882 14.2205C14.9681 14.6482 14.9564 15.1313 14.7541 15.58C14.352 16.4739 13.3795 16.9664 12.5866 16.6778C11.7938 16.3892 11.3642 15.3864 11.6315 14.4435C11.7674 13.9653 12.068 13.5865 12.4782 13.377C12.8883 13.1676 13.358 13.1452 13.8122 13.3105C14.0292 13.386 14.2281 13.5059 14.3961 13.6626C14.5642 13.8193 14.6977 14.0093 14.7882 14.2205ZM12.1631 4.19691C12.2236 4.03076 12.3476 3.89544 12.5078 3.82072C12.6681 3.746 12.8514 3.73799 13.0176 3.79846L16.7764 5.16654C16.9425 5.22702 17.0778 5.35102 17.1526 5.51126C17.2273 5.67151 17.2353 5.85487 17.1748 6.02102C17.1143 6.18717 16.9903 6.32249 16.8301 6.39721C16.6699 6.47194 16.4865 6.47994 16.3203 6.41947L12.5616 5.05139C12.3954 4.99091 12.2601 4.86692 12.1854 4.70667C12.1107 4.54643 12.1026 4.36306 12.1631 4.19691ZM14.3783 21.1357C14.3142 21.1715 14.243 21.1928 14.1697 21.198C14.0965 21.2033 14.023 21.1925 13.9544 21.1663L8.65372 19.237C8.58431 19.213 8.52102 19.174 8.46831 19.1229C8.41559 19.0718 8.37474 19.0097 8.34862 18.941C8.32103 18.8646 8.31098 18.783 8.31921 18.7022C8.32744 18.6214 8.35375 18.5434 8.39618 18.4741C8.77367 17.8329 9.3805 17.3998 10.1513 17.2214C10.8359 17.0631 11.6097 17.1203 12.3301 17.3826C13.0505 17.6448 13.6801 18.0983 14.1027 18.6596C14.5786 19.2917 14.765 20.0136 14.642 20.7474C14.63 20.8278 14.6 20.9044 14.5544 20.9716C14.5087 21.0388 14.4486 21.0949 14.3783 21.1357Z" fill="#5322E5"/>
</svg>
